public/images/services/dark/8.svg

<svg width="64" height="64" viewBox="0 0 64 64" fill="none" xmlns="http://www.w3.org/2000/svg">
<g id="Frame" clip-path="url(#clip0_3255_8031)">
<path id="Vector" d="M32 64C49.6731 64 64 49.6731 64 32C64 14.3269 49.6731 0 32 0C14.3269 0 0 14.3269 0 32C0 49.6731 14.3269 64 32 64Z" fill="white"/>
<g id="Group">
<g id="Group_2">
<g id="Group_3">
<g id="Group_4">
<path id="Vector_2" d="M45.091 16H18.9091C17.3047 16 16 17.3047 16 18.9091V23.2728C16 24.8771 17.3047 26.1819 18.9091 26.1819H45.091C46.6953 26.1819 48.0001 24.8772 48.0001 23.2728V18.9091C48 17.3047 46.6953 16 45.091 16ZM21.8182 22.5455C21.8182 22.9475 21.4929 23.2728 21.0909 23.2728C20.6889 23.2728 20.3636 22.9475 20.3636 22.5455V19.6363C20.3636 19.2343 20.6889 18.909 21.0909 18.909C21.4929 18.909 21.8182 19.2343 21.8182 19.6363L21.8182 22.5455ZM24.7273 22.5455C24.7273 22.9475 24.402 23.2728 24 23.2728C23.598 23.2728 23.2727 22.9475 23.2727 22.5455V19.6363C23.2727 19.2343 23.598 18.909 24 18.909C24.402 18.909 24.7273 19.2343 24.7273 19.6363V22.5455ZM27.6364 22.5455C27.6364 22.9475 27.3111 23.2728 26.9091 23.2728C26.5071 23.2728 26.1818 22.9475 26.1818 22.5455V19.6363C26.1818 19.2343 26.5071 18.909 26.9091 18.909C27.3111 18.909 27.6364 19.2343 27.6364 19.6363V22.5455ZM37.8182 22.5455C37.0164 22.5455 36.3637 21.8928 36.3637 21.0909C36.3637 20.2891 37.0164 19.6363 37.8182 19.6363C38.62 19.6363 39.2727 20.289 39.2727 21.0909C39.2727 21.8927 38.62 22.5455 37.8182 22.5455ZM42.1818 22.5455C41.38 22.5455 40.7273 21.8928 40.7273 21.0909C40.7273 20.2891 41.38 19.6363 42.1818 19.6363C42.9837 19.6363 43.6364 20.289 43.6364 21.0909C43.6364 21.8927 42.9837 22.5455 42.1818 22.5455Z" fill="#6C4796"/>
<path id="Vector_3" d="M45.091 26.9092H18.9091C17.3047 26.9092 16 28.2138 16 29.8183V34.1819C16 35.7863 17.3047 37.0911 18.9091 37.0911H45.091C46.6953 37.0911 48.0001 35.7864 48.0001 34.1819V29.8183C48 28.2138 46.6953 26.9092 45.091 26.9092ZM21.8182 33.4546C21.8182 33.8566 21.4929 34.1819 21.0909 34.1819C20.6889 34.1819 20.3636 33.8566 20.3636 33.4546V30.5455C20.3636 30.1435 20.6889 29.8182 21.0909 29.8182C21.4929 29.8182 21.8182 30.1435 21.8182 30.5455L21.8182 33.4546ZM24.7273 33.4546C24.7273 33.8566 24.402 34.1819 24 34.1819C23.598 34.1819 23.2727 33.8566 23.2727 33.4546V30.5455C23.2727 30.1435 23.598 29.8182 24 29.8182C24.402 29.8182 24.7273 30.1435 24.7273 30.5455V33.4546ZM27.6364 33.4546C27.6364 33.8566 27.3111 34.1819 26.9091 34.1819C26.5071 34.1819 26.1818 33.8566 26.1818 33.4546V30.5455C26.1818 30.1435 26.5071 29.8182 26.9091 29.8182C27.3111 29.8182 27.6364 30.1435 27.6364 30.5455V33.4546ZM37.8182 33.4546C37.0164 33.4546 36.3637 32.8019 36.3637 32.0001C36.3637 31.1983 37.0164 30.5456 37.8182 30.5456C38.62 30.5456 39.2727 31.1983 39.2727 32.0001C39.2727 32.8019 38.62 33.4546 37.8182 33.4546ZM42.1818 33.4546C41.38 33.4546 40.7273 32.8019 40.7273 32.0001C40.7273 31.1983 41.38 30.5456 42.1818 30.5456C42.9837 30.5456 43.6364 31.1983 43.6364 32.0001C43.6364 32.8019 42.9837 33.4546 42.1818 33.4546Z" fill="#6C4796"/>
<path id="Vector_4" d="M45.091 37.8184H18.9091C17.3047 37.8184 16 39.123 16 40.7275V45.0911C16 46.6955 17.3047 48.0002 18.9091 48.0002H45.091C46.6953 48.0002 48.0001 46.6956 48.0001 45.0911V40.7275C48 39.123 46.6953 37.8184 45.091 37.8184ZM21.8182 44.3638C21.8182 44.7658 21.4929 45.0911 21.0909 45.0911C20.6889 45.0911 20.3636 44.7658 20.3636 44.3638V41.4547C20.3636 41.0527 20.6889 40.7274 21.0909 40.7274C21.4929 40.7274 21.8182 41.0527 21.8182 41.4547L21.8182 44.3638ZM24.7273 44.3638C24.7273 44.7658 24.402 45.0911 24 45.0911C23.598 45.0911 23.2727 44.7658 23.2727 44.3638V41.4547C23.2727 41.0527 23.598 40.7274 24 40.7274C24.402 40.7274 24.7273 41.0527 24.7273 41.4547V44.3638ZM27.6364 44.3638C27.6364 44.7658 27.3111 45.0911 26.9091 45.0911C26.5071 45.0911 26.1818 44.7658 26.1818 44.3638V41.4547C26.1818 41.0527 26.5071 40.7274 26.9091 40.7274C27.3111 40.7274 27.6364 41.0527 27.6364 41.4547V44.3638ZM37.8182 44.3638C37.0164 44.3638 36.3637 43.7111 36.3637 42.9093C36.3637 42.1075 37.0164 41.4548 37.8182 41.4548C38.62 41.4548 39.2727 42.1075 39.2727 42.9093C39.2727 43.7111 38.62 44.3638 37.8182 44.3638ZM42.1818 44.3638C41.38 44.3638 40.7273 43.7111 40.7273 42.9093C40.7273 42.1075 41.38 41.4548 42.1818 41.4548C42.9837 41.4548 43.6364 42.1075 43.6364 42.9093C43.6364 43.7111 42.9837 44.3638 42.1818 44.3638Z" fill="#6C4796"/>
</g>
</g>
</g>
</g>
</g>
<defs>
<clipPath id="clip0_3255_8031">
<rect width="64" height="64" fill="white"/>
</clipPath>
</defs>
</svg>

<svg width="64" height="64" fill="none" xmlns="http://www.w3.org/2000/svg"><g clip-path="url(#a)"><path d="M32 64c17.673 0 32-14.327 32-32C64 14.327 49.673 0 32 0 14.327 0 0 14.327 0 32c0 17.673 14.327 32 32 32Z" fill="#fff"/><g fill="#6C4796"><path d="M45.091 16H18.909A2.912 2.912 0 0 0 16 18.91v4.363a2.912 2.912 0 0 0 2.91 2.909H45.09a2.912 2.912 0 0 0 2.91-2.91V18.91A2.912 2.912 0 0 0 45.09 16Zm-23.273 6.546a.727.727 0 1 1-1.454 0v-2.91a.727.727 0 1 1 1.454 0v2.91Zm2.91 0a.727.727 0 1 1-1.455 0v-2.91a.727.727 0 1 1 1.454 0v2.91Zm2.908 0a.727.727 0 1 1-1.454 0v-2.91a.727.727 0 1 1 1.454 0v2.91Zm10.182 0a1.456 1.456 0 0 1-1.454-1.455c0-.802.652-1.455 1.454-1.455.802 0 1.455.653 1.455 1.455s-.653 1.454-1.455 1.454Zm4.364 0a1.456 1.456 0 0 1-1.455-1.455c0-.802.653-1.455 1.455-1.455s1.454.653 1.454 1.455-.652 1.454-1.454 1.454ZM45.091 26.91H18.909A2.912 2.912 0 0 0 16 29.817v4.364a2.912 2.912 0 0 0 2.91 2.91H45.09a2.912 2.912 0 0 0 2.91-2.91v-4.364a2.912 2.912 0 0 0-2.91-2.909Zm-23.273 6.545a.727.727 0 1 1-1.454 0v-2.91a.727.727 0 1 1 1.454 0v2.91Zm2.91 0a.727.727 0 1 1-1.455 0v-2.91a.727.727 0 1 1 1.454 0v2.91Zm2.908 0a.727.727 0 1 1-1.454 0v-2.91a.727.727 0 1 1 1.454 0v2.91Zm10.182 0A1.456 1.456 0 0 1 36.364 32c0-.802.652-1.454 1.454-1.454.802 0 1.455.652 1.455 1.454 0 .802-.653 1.455-1.455 1.455Zm4.364 0A1.456 1.456 0 0 1 40.727 32c0-.802.653-1.454 1.455-1.454s1.454.652 1.454 1.454c0 .802-.652 1.455-1.454 1.455ZM45.091 37.818H18.909A2.912 2.912 0 0 0 16 40.728v4.363a2.912 2.912 0 0 0 2.91 2.91H45.09a2.912 2.912 0 0 0 2.91-2.91v-4.364a2.912 2.912 0 0 0-2.91-2.909Zm-23.273 6.546a.727.727 0 1 1-1.454 0v-2.91a.727.727 0 1 1 1.454 0v2.91Zm2.91 0a.727.727 0 1 1-1.455 0v-2.91a.727.727 0 1 1 1.454 0v2.91Zm2.908 0a.727.727 0 1 1-1.454 0v-2.91a.727.727 0 1 1 1.454 0v2.91Zm10.182 0a1.456 1.456 0 0 1-1.454-1.455c0-.801.652-1.454 1.454-1.454.802 0 1.455.653 1.455 1.454 0 .802-.653 1.455-1.455 1.455Zm4.364 0a1.456 1.456 0 0 1-1.455-1.455c0-.801.653-1.454 1.455-1.454s1.454.653 1.454 1.454c0 .802-.652 1.455-1.454 1.455Z"/></g></g><defs><clipPath id="a"><path fill="#fff" d="M0 0h64v64H0z"/></clipPath></defs></svg>
